!!!ONB: MCCC : IJH0425_04 : Extracted Monophonic Melody
!!!COM: Haydn, Joseph
!!!OPR: String Quartet in D major
!!!OMV: 4
!!!SCT: Hob.III:3 ; Op.1 No.3
!!!ODT: 1757///
**kern
*thru
*k[f#c#]
*D:
*clefF
*M3/4
2dd
4cc#
=1
2b
4a
=2
4.b
8ee
4cc#
=3
8dd
8ee
8ff#
8gg
8aa
8aa#
=4
2bb
4aa
=5
2gg
4ff#
=6
4.ee
8ff#
4cc#
=7
2dd
4r
=8
2a
4b-
=9
4a
4cc#
4dd
=10
2a
4cc#
=11
4dd
4ee
4ff
=12
4.gg
8aa
4ff
=13
4.ee
8ff
4dd
=14
4cc#
4cc#
8dd
16cc#
16dd
=15
4ee
2r
=16
2dd
4cc#
=17
2b
4a
=18
4.b
8ee
4cc#
=19
8dd
8ee
8ff#
8gg
8aa
8aa#
=20
2bb
4aa
=21
2gg
4ff#
=22
2bb
4ccc#
=23
2ddd
4ff#
=24
8ee
8ff#
8gg
8aa
8aa#
8bb
=25
2cc#
4dd
=26
4.ee
8ff#
4cc#
=27
4dd
2r
=28
2.dd
=29
2.ee
=30
2.ff
=31
2.gg
=32
2.aa
=33
2.bb-
=34
4aa
4a
4g
=35
2f
4r
=36
2.ff
=37
2.ee-
=38
2.dd
=39
2.cc
=40
2.b-
=41
2.a
=42
2g
4e
=43
4f
2r
=44
2.f#
=45
2.g
=46
2.g#
=47
2.a
=48
2b-
4bb-
=49
4aa
4cc#
4dd
=50
4b-
4a
4c#
=51
4d
2r
==
*-
